electric-switch-closed.svg

<svg fill="currentColor" viewBox="0 0 24 24"><path d="M20.83 11a3 3 0 0 0-5.65 0H8.82a3 3 0 0 0-5.65 0H1v2h2.17a3 3 0 0 0 5.65 0h6.36a3 3 0 0 0 5.65 0H23v-2M6 13a1 1 0 1 1 1-1 1 1 0 0 1-1 1m12 0a1 1 0 1 1 1-1 1 1 0 0 1-1 1"/></svg>

<svg  viewBox="0 0 24 24" fill="currentColor"><path  d="M20.83 11A3 3 0 0 0 15.18 11H8.82A3 3 0 0 0 3.17 11H1V13H3.17A3 3 0 0 0 8.82 13H15.18A3 3 0 0 0 20.83 13H23V11M6 13A1 1 0 1 1 7 12A1 1 0 0 1 6 13M18 13A1 1 0 1 1 19 12A1 1 0 0 1 18 13Z"/></svg>
